src/icons/svg/yi-table-option.svg

<svg t="1586760895768" class="icon" viewBox="0 0 1027 1024" version="1.1" xmlns="http://www.w3.org/2000/svg" p-id="8448" width="200" height="200"><path d="M1017.719467 567.364267 973.960533 583.816533C967.953067 586.069333 963.037867 591.735467 963.037867 596.309333 963.037867 600.746667 966.929067 615.150933 972.8 617.8816L1014.920533 637.815467C1020.791467 640.546133 1023.3856 647.714133 1020.7232 653.653333L976.759467 751.2064C974.0288 757.1456 967.0656 759.739733 961.262933 757.077333L919.074133 737.143467C913.2032 734.4128 900.027733 740.5568 896.546133 743.6288 893.1328 746.564267 892.177067 754.0736 894.429867 760.2176L910.472533 804.932267C912.725333 811.076267 909.585067 817.9712 903.5776 820.292267L805.000533 857.429333C798.993067 859.682133 792.1664 856.4736 790.050133 850.261333L773.870933 805.751467C771.6864 799.5392 757.9648 794.4192 753.527467 794.146133 749.090133 793.941333 743.2192 798.446933 740.5568 804.4544L721.1008 847.598933C718.370133 853.538133 711.406933 856.200533 705.536 853.4016L610.0992 808.413867C604.3648 805.751467 601.7024 798.5152 604.433067 792.576L623.889067 749.499733C626.619733 743.560533 620.544 729.975467 617.540267 726.562133 614.673067 723.080533 607.300267 722.1248 601.2928 724.3776L557.533867 740.829867C551.594667 743.082667 544.768 739.874133 542.583467 733.7984L506.2656 632.968533C504.0128 626.756267 507.153067 619.9296 513.160533 617.608533L556.8512 601.224533C562.858667 598.903467 567.9104 584.840533 568.1152 580.266667 568.456533 575.829333 563.950933 569.821867 558.08 567.022933L515.8912 547.157333C510.088533 544.3584 507.4944 537.258667 510.1568 531.319467L554.1888 433.7664C556.919467 427.8272 563.882667 425.1648 569.685333 427.963733L611.874133 447.829333C617.745067 450.56 630.920533 444.347733 634.2656 441.344 637.7472 438.408533 638.702933 430.830933 636.5184 424.686933L620.3392 380.040533C618.154667 373.828267 621.226667 367.0016 627.234133 364.680533L725.8112 327.543467C731.886933 325.290667 738.577067 328.430933 740.898133 334.574933L756.9408 379.2896C759.1936 385.501867 772.9152 390.5536 777.352533 390.826667 781.858133 391.168 787.729067 386.525867 790.391467 380.5184L809.847467 337.373867C812.509867 331.434667 819.473067 328.840533 825.344 331.502933L920.712533 376.490667C926.583467 379.221333 929.109333 386.389333 926.446933 392.328533L906.922667 435.473067C904.328533 441.412267 910.336 454.929067 913.271467 458.478933 916.206933 461.960533 923.511467 462.984533 929.5872 460.663467L973.2096 444.2112C979.285333 441.9584 986.043733 445.166933 988.228267 451.310933L1024.6144 552.004267C1026.8672 558.216533 1023.726933 565.111467 1017.719467 567.364267ZM874.973867 551.1168C852.650667 489.335467 785.544533 457.659733 725.060267 480.529067 664.507733 503.330133 633.582933 572.0064 655.837867 633.787733 678.229333 695.637333 745.335467 727.313067 805.888 704.512 866.304 681.710933 897.297067 613.034667 874.973867 551.1168ZM460.5952 847.2576 143.086933 847.2576 143.086933 810.666667 460.5952 810.666667 460.5952 847.2576ZM143.086933 323.037867 460.5952 323.037867 460.5952 359.6288 143.086933 359.6288 143.086933 323.037867ZM387.618133 684.714667 143.086933 684.714667 143.086933 648.123733 387.618133 648.123733 387.618133 684.714667ZM143.086933 485.5808 387.618133 485.5808 387.618133 522.171733 143.086933 522.171733 143.086933 485.5808ZM810.871467 170.666667C810.871467 103.492267 757.3504 48.7424 691.6096 48.7424L459.9808 48.7424C402.432 48.7424 354.235733 90.658133 343.176533 146.295467L596.309333 146.295467C676.795733 146.295467 744.174933 204.936533 759.808 282.555733 744.106667 284.4672 728.541867 288.017067 713.1136 292.4544 701.986133 236.9536 653.789867 195.037867 596.309333 195.037867L166.980267 195.037867C101.239467 195.037867 47.7184 249.787733 47.7184 316.962133L47.7184 853.333333C47.7184 920.507733 101.239467 975.2576 166.980267 975.2576L596.309333 975.2576C645.9392 975.2576 688.5376 943.991467 706.491733 899.754667 721.646933 904.533333 737.0752 908.219733 752.913067 910.5408 729.770667 976.349867 668.603733 1024 596.309333 1024L166.980267 1024C74.888533 1024 0 947.4048 0 853.333333L0 316.962133C0 222.8224 74.888533 146.295467 166.980267 146.295467L295.458133 146.295467C307.2 63.829333 376.149333 0 459.9808 0L691.6096 0C783.701333 0 858.589867 76.526933 858.589867 170.666667L858.589867 286.9248C842.888533 283.648 826.9824 281.531733 810.871467 280.7808L810.871467 170.666667Z" p-id="8449"></path></svg>

<svg class="icon" viewBox="0 0 1027 1024" xmlns="http://www.w3.org/2000/svg" width="200" height="200"><path d="M1017.72 567.364l-43.76 16.453c-6.007 2.252-10.922 7.918-10.922 12.492 0 4.438 3.891 18.842 9.762 21.573l42.12 19.933c5.871 2.731 8.466 9.9 5.803 15.838l-43.964 97.553c-2.73 5.94-9.693 8.534-15.496 5.871l-42.189-19.934c-5.87-2.73-19.046 3.414-22.528 6.486-3.413 2.935-4.369 10.445-2.116 16.589l16.043 44.714c2.252 6.144-.888 13.04-6.895 15.36L805 857.43c-6.008 2.253-12.835-.955-14.95-7.168l-16.18-44.51c-2.185-6.212-15.906-11.332-20.344-11.605-4.437-.205-10.308 4.3-12.97 10.308L721.1 847.6c-2.73 5.94-9.694 8.602-15.565 5.803l-95.437-44.988c-5.734-2.663-8.397-9.899-5.666-15.838L623.89 749.5c2.73-5.94-3.345-19.525-6.349-22.938-2.867-3.481-10.24-4.437-16.247-2.184l-43.76 16.452c-5.938 2.253-12.765-.956-14.95-7.032l-36.317-100.83c-2.253-6.212.887-13.038 6.895-15.36l43.69-16.383c6.008-2.322 11.06-16.384 11.264-20.958.342-4.438-4.164-10.445-10.035-13.244l-42.189-19.866c-5.802-2.799-8.397-9.898-5.734-15.838l44.032-97.553c2.73-5.939 9.694-8.601 15.496-5.802l42.19 19.865c5.87 2.731 19.046-3.481 22.39-6.485 3.482-2.935 4.438-10.513 2.253-16.657L620.34 380.04c-2.184-6.213.888-13.04 6.895-15.36l98.577-37.138c6.076-2.252 12.766.888 15.087 7.032l16.043 44.715c2.253 6.212 15.974 11.264 20.412 11.537 4.505.341 10.376-4.301 13.038-10.309l19.456-43.144c2.663-5.94 9.626-8.533 15.497-5.871l95.369 44.988c5.87 2.73 8.396 9.898 5.734 15.838l-19.524 43.144c-2.594 5.94 3.413 19.456 6.348 23.006 2.936 3.482 10.24 4.506 16.316 2.184l43.623-16.452c6.075-2.253 12.834.956 15.018 7.1l36.386 100.693c2.253 6.213-.887 13.107-6.895 15.36zm-142.746-16.247c-22.323-61.782-89.43-93.457-149.914-70.588-60.552 22.801-91.477 91.477-69.222 153.259 22.391 61.85 89.497 93.525 150.05 70.724 60.416-22.801 91.41-91.477 69.086-153.395zm-414.379 296.14H143.087v-36.59h317.508v36.59zm-317.508-524.22h317.508v36.592H143.087v-36.591zm244.531 361.678H143.087v-36.591h244.531v36.59zM143.087 485.58h244.531v36.59H143.087v-36.59zM810.87 170.667c0-67.175-53.52-121.925-119.261-121.925H459.98c-57.548 0-105.744 41.916-116.803 97.553h253.132c80.487 0 147.866 58.642 163.499 136.26-15.701 1.912-31.266 5.462-46.694 9.9-11.128-55.501-59.324-97.417-116.805-97.417H166.98c-65.74 0-119.262 54.75-119.262 121.924v536.371c0 67.175 53.521 121.925 119.262 121.925h429.33c49.63 0 92.228-31.267 110.182-75.503 15.155 4.778 30.583 8.465 46.421 10.786C729.771 976.35 668.603 1024 596.31 1024H166.98C74.89 1024 0 947.405 0 853.333v-536.37c0-94.14 74.889-170.668 166.98-170.668h128.478C307.2 63.83 376.15 0 459.981 0H691.61C783.7 0 858.59 76.527 858.59 170.667v116.258c-15.701-3.277-31.608-5.393-47.719-6.144V170.667z"/></svg>
